X:108
T:Paddy Fahy's
R:hornpipe
Z:id:hn-hornpipe-108
M:C|
L:1/8
K:G
B,A, | G,B,DG BAGF | ECCB, CEGc | (3Bcd gd (3B^cd Dd | cBAG (3FED (3CB,A, |
G,B,DG BAGF | ECCB, CEGc | (3Bcd gd (3B^cd DF | (3ABA GF G2 :|
|: Bc | dggf gdBd | (3cBA ag fg (3agf | gdBd ecAG | Fdd^c ded=c |
(3Bcd BG cBcA | (3Bcd fa gfdc | (3Bcd gd (3B^cd DF | (3ABA GF G2 :|

